!!!COM: Mozart, Wolfgang Amadeus
!!!OTL: String Quartet No. 2 in D Major
!!!OMD: Allegro
!!!OMV: 1
!!!SCT1: K<sup>1</sup> 155
!!!SCA: Chronologisch-thematisches Verzeichnis sämtlicher Tonwerke Wolfgang Amade Mozarts (L. von Köchel; 1862, 2/1905, 3/1937, 1947)
!!!SCT2: K<sup>6</sup> 134a
!!!YOR: Breitkopf & Härtel Edition
!!!ENC: Edmund Correia, Jr.
!!!CDT: 1756/1/27/-1791/12/5/
!!!OCY: Österreich
!!!YEC: Copyright (c) 1994, 2000 Center for Computer Assisted Research in the Humanities
!!!YEM: Rights to all derivative editions reserved.
!!!YEM: Refer to licensing agreement for further details.
!!!YEN: United States of America
**kern	**dynam	**kern	**dynam	**kern	**dynam	**kern	**dynam
*I:Violoncello	*I:Violoncello	*I:Viola	*I:Viola	*I:Violino 2	*I:Violino 2	*I:Violino 1	*I:Violino 1
*clefF4	*	*clefC3	*	*clefG2	*	*clefG2	*
*k[f#c#]	*	*k[f#c#]	*	*k[f#c#]	*	*k[f#c#]	*
*D:	*	*D:	*	*D:	*	*D:	*
*M4/4	*	*M4/4	*	*M4/4	*	*M4/4	*
! [Allegro]	!	! [Allegro]	!	! [Allegro]	!	! [Allegro]	!
8D\Lxx	f	8d\Lxx	f	4ff#\xx 4a\	f	4aa\xx 4a\	f
8F#\	.	8d\	.	.	.	.	.
8A\	.	8d\	.	4dd\	.	4ff#\ 4a\	.
8F#\J	.	8d\J	.	.	.	.	.
4D\	.	8d\L	p	8r	.	8r	.
.	.	8d\	.	8f#/L	p	8a/L	p
4r	.	8d\	.	8f#/	.	8a/	.
.	.	8d\J	.	8f#/J	.	8a/J	.
=2	=2	=2	=2	=2	=2	=2	=2
1r	.	8d\L	.	(8.gT/L	.	(8.bT/L	.
.	.	8d\	.	.	.	.	.
.	.	.	.	32f#/LL	.	32a/LL	.
.	.	.	.	32g/JJJ)	.	32b/JJJ)	.
.	.	8d\	.	4f#/	.	4a/	.
.	.	8d\J	.	.	.	.	.
.	.	4d\	.	16r	.	16r	.
.	.	.	.	16f#/LL	.	16a\LL	.
.	.	.	.	16g/	.	16b\	.
.	.	.	.	16a/JJ	.	16cc#\JJ	.
.	.	4r	.	16b\LL	.	16dd\LL	.
.	.	.	.	16cc#\	.	16ee\	.
.	.	.	.	16dd\	.	16ff#\	.
.	.	.	.	16ee\JJ	.	16gg\JJ	.
=3	=3	=3	=3	=3	=3	=3	=3
8D\L	f	8d\L	f	4ff#\ 4a\	f	4aa\ 4a\	f
8F#\	.	8d\	.	.	.	.	.
8A\	.	8d\	.	4dd\	.	4ff#\ 4a\	.
8F#\J	.	8d\J	.	.	.	.	.
4D\	.	8d\L	p	8r	.	8r	.
.	.	8d\	.	8f#/L	p	8a/L	p
4r	.	8d\	.	8f#/	.	8a/	.
.	.	8d\J	.	8f#/J	.	8a/J	.
=4	=4	=4	=4	=4	=4	=4	=4
2r	.	8d\L	.	(8.eT/L	.	(8.gT/L	.
.	.	8d\	.	.	.	.	.
.	.	.	.	32d/LL	.	32f#/LL	.
.	.	.	.	32e/JJJ)	.	32g/JJJ)	.
.	.	8d\	.	4d/	.	4f#/	.
.	.	8d\J	.	.	.	.	.
8F#\L	f	8A/L	f	4r	.	(8dd\L	f
8F#\	.	8A/	.	.	.	8ff#\)	.
8F#\	.	8A/	.	(4a/	f	8aa'\	.
8F#\J	.	8A/J	.	.	.	8ddd'\J	.
=5	=5	=5	=5	=5	=5	=5	=5
8E\L	.	1A/	.	4g/	.	(8ddd\L	.
8E\	.	.	.	.	.	8ccc#\)	.
8D\	.	.	.	4f#/)	.	8bb'\	.
8D\J	.	.	.	.	.	8aa'\J	.
8C#/L	.	.	.	(8f#/L	.	(8aa\L	.
8C#/	.	.	.	8e/)	.	8gg\)	.
8AA/	.	.	.	8d'/	.	8ff#'\	.
8AA/J	.	.	.	8c#'/J	.	8ee'\J	.
=6	=6	=6	=6	=6	=6	=6	=6
8D\L	.	[2A/	.	(16d/LL	.	(16ff#\LL	.
.	.	.	.	16f#/)	.	16aa\)	.
8D\	.	.	.	(16e/	.	(16gg\	.
.	.	.	.	16g/JJ)	.	16bb\JJ)	.
8D\	.	.	.	4f#/	.	4aa\	.
8D\J	.	.	.	.	.	.	.
8F#\L	p	2A/]	p	4r	.	(8dd\L	p
8F#\	.	.	.	.	.	8ff#\)	.
8F#\	.	.	.	(4a/	p	8aa'\	.
8F#\J	.	.	.	.	.	8ddd'\J	.
=7	=7	=7	=7	=7	=7	=7	=7
8E\L	.	1A/	.	4g/	.	(8ddd\L	.
8E\	.	.	.	.	.	8ccc#\)	.
8D\	.	.	.	4f#/)	.	8bb'\	.
8D\J	.	.	.	.	.	8aa'\J	.
8C#/L	.	.	.	(8f#/L	.	(8aa\L	.
8C#/	.	.	.	8e/)	.	8gg\)	.
8AA/	.	.	.	8d'/	.	8ff#'\	.
8AA/J	.	.	.	8c#'/J	.	8ee'\J	.
=8	=8	=8	=8	=8	=8	=8	=8
8D\L	.	2A/	.	(16d/LL	.	(16ff#\LL	.
.	.	.	.	16f#/)	.	16aa\)	.
8D\	.	.	.	(16e/	.	(16gg\	.
.	.	.	.	16g/JJ)	.	16bb\JJ)	.
8D\	.	.	.	4f#/	.	4aa\	.
8D\J	.	.	.	.	.	.	.
8F#\L	f	8d\L	f	8a/L	f	16dd\LL	f
.	.	.	.	.	.	16ee\	.
8F#\	.	8d\	.	8a/	.	16ff#\	.
.	.	.	.	.	.	16gg\JJ	.
8F#\	.	8d\	.	8a/	.	16aa\LL	.
.	.	.	.	.	.	16bb\	.
8F#\J	.	8d\J	.	8a/J	.	16ccc#\	.
.	.	.	.	.	.	16ddd\JJ	.
=9	=9	=9	=9	=9	=9	=9	=9
8G\L	.	8d\L	.	8b\L	.	(16ee\LL	.
.	.	.	.	.	.	16ff#\	.
8G\	.	8d\	.	8b\	.	16gg\	.
.	.	.	.	.	.	16ff#\JJ)	.
8G\	.	8d\	.	8b\	.	4ee\	.
8G\J	.	8d\J	.	8b\J	.	.	.
8G\L	.	8d\L	.	8b/L	.	16ee\LL	.
.	.	.	.	.	.	16ff#\	.
8G\	.	8d\	.	8b/	.	16gg\	.
.	.	.	.	.	.	16aa\JJ	.
8G\	.	8e\	.	8g/	.	16bb\LL	.
.	.	.	.	.	.	16gg\	.
8G\J	.	8e\J	.	8g/J	.	16ff#\	.
.	.	.	.	.	.	16ee\JJ	.
=10	=10	=10	=10	=10	=10	=10	=10
8A\L	.	8d\L	.	8f#/L	.	(32ff#\LLL	.
.	.	.	.	.	.	32gg\JJ	.
.	.	.	.	.	.	8.aa\J)	.
8A\	.	8d\	.	8f#/	.	.	.
8A\	.	8d\	.	8f#/	.	2aa\	.
8A\J	.	8d\J	.	8f#/J	.	.	.
8A\L	.	8d\L	.	8f#/L	.	.	.
8A\	.	8d\	.	8f#/	.	.	.
8A\	.	8d\	.	8f#/	.	16gg\LL	.
.	.	.	.	.	.	16ff#\	.
8A\J	.	8d\J	.	8f#/J	.	16ee\	.
.	.	.	.	.	.	16dd\JJ	.
=11	=11	=11	=11	=11	=11	=11	=11
8AA/L	.	4e\	.	16g/LL	.	16cc#\LL	.
.	.	.	.	16f#/	.	16dd\	.
8AA/	.	.	.	16g/	.	16cc#\	.
.	.	.	.	16f#/JJ	.	16dd\JJ	.
8AA/	.	16g\LL	.	16e/LL	.	16ee\LL	.
.	.	16f#\	.	16d/	.	16ff#\	.
8AA/J	.	16g\	.	16e/	.	16ee\	.
.	.	16f#\JJ	.	16d/JJ	.	16ff#\JJ	.
8AA/L	.	(8e\L	.	(8c#/L	.	(8gg\L	.
8AA/	.	8c#\)	.	8e/)	.	8ee\)	.
8AA/	.	(8d\	.	(8f#/	.	(8dd\	.
8AA/J	.	8e\J)	.	8g/J)	.	8cc#\J)	.
=12	=12	=12	=12	=12	=12	=12	=12
4D\	.	4d\	.	4f#/	.	4dd\	.
4DD/	.	(16F#/LL	.	4A/	.	(16d/LL	.
.	.	16E/	.	.	.	16c#/	.
.	.	16F#/	.	.	.	16d/	.
.	.	16G/JJ)	.	.	.	16e/JJ)	.
4DD/	.	4F#'/	.	4A/	.	4d'/	.
4r	.	4r	.	4r	.	4r	.
=13	=13	=13	=13	=13	=13	=13	=13
8BB/L	.	2.F#/	.	2.B/	.	2.d/	.
8BB/	.	.	.	.	.	.	.
8BB/	.	.	.	.	.	.	.
8BB/J	.	.	.	.	.	.	.
8BB/L	.	.	.	.	.	.	.
8BB/	.	.	.	.	.	.	.
8BB/	.	4B/	.	(8d/L	.	4bb\	.
8BB/J	.	.	.	8f#/J)	.	.	.
=14	=14	=14	=14	=14	=14	=14	=14
8E\L	p	1E/	p	(8f#/L	p	(8aa\L	p
8E\	.	.	.	8e/J)	.	8gg#\J)	.
8E\	.	.	.	2e/	.	2gg#\	.
8E\J	.	.	.	.	.	.	.
8E\L	.	.	.	.	.	.	.
8E\	.	.	.	.	.	.	.
8E\	.	.	.	4d/	.	4ff#\	.
8E\J	.	.	.	.	.	.	.
=15	=15	=15	=15	=15	=15	=15	=15
8E\L	.	2E/	.	(8dT/L	.	(8ff#t\L	.
8E\	.	.	.	8c#/J)	.	8ee\J)	.
8E\	.	.	.	(2c#/	.	(2ee\	.
8E\J	.	.	.	.	.	.	.
8E\L	.	4F#/	.	.	.	.	.
8E\	.	.	.	.	.	.	.
8E\	.	4G#/	.	4B/)	.	4dd\)	.
8E\J	.	.	.	.	.	.	.
=16	=16	=16	=16	=16	=16	=16	=16
8AA/L	.	8A\L	.	4BT/	.	4ddT\	.
8AA/	.	8e\	.	.	.	.	.
8AA/	.	8e\	.	4A/	.	4cc#\	.
8AA/J	.	8e\J	.	.	.	.	.
4AA/	.	8e\L	.	(8d/L	.	(8ff#\L	.
.	.	8e\	.	8c#/)	.	8ee\)	.
4r	.	8e\	.	8B'/	.	8dd'\	.
.	.	8e\J	.	8A'/J	.	8cc#'\J	.
=17	=17	=17	=17	=17	=17	=17	=17
4E\	.	8e\L	.	(4A/	.	(4cc#\	.
.	.	8e\	.	.	.	.	.
4r	.	8e\	.	4G#/)	.	4b\)	.
.	.	8e\J	.	.	.	.	.
4E\	.	8e\L	.	(8e/L	.	(8gg#\L	.
.	.	8e\	.	8d/)	.	8ff#\)	.
4r	.	8e\	.	8c#'/	.	8ee'\	.
.	.	8e\J	.	8B'/J	.	8dd'\J	.
=18	=18	=18	=18	=18	=18	=18	=18
4A\	.	8e\L	.	(4B/	.	(4dd\	.
.	.	8e\	.	.	.	.	.
4r	.	8e\	.	4A/)	.	4cc#\)	.
.	.	8e\J	.	.	.	.	.
8C#/L	.	8e\L	.	8gn/L	.	[2aa\	.
8C#/	.	8e\	.	8g/	.	.	.
8C#/	.	8e\	.	8g/	.	.	.
8C#/J	.	8e\J	.	8g/J	.	.	.
=19	=19	=19	=19	=19	=19	=19	=19
8D\L	.	8d\L	.	8f#/L	.	4aa\]	.
8D\	.	8d\	.	8f#/	.	.	.
!	!	!	!	!	!	! 16gg#P/	!
8D\	.	8d\	.	8a/	.	4ff#p\	.
8D\J	.	8d\J	.	8a/J	.	.	.
!	!	!	!	!	!	! 16eeP/	!
8D\L	.	8f#\L	.	8b/L	.	(4.ddp\	.
8D\	.	8f#\	.	8b/	.	.	.
8D\	.	8f#\	.	8b/	.	.	.
8D#\J	.	8f#\J	.	8a/J	.	8cc#\)	.
=20	=20	=20	=20	=20	=20	=20	=20
8E\L	.	8e\L	.	(8.aT/L	.	(8.cc#t\L	.
8E\	.	8e\	.	.	.	.	.
.	.	.	.	32g#/LL	.	32b\LL	.
.	.	.	.	32a/JJJ)	.	32cc#\JJJ)	.
8E\	.	8e\	.	4g#/	.	4b\	.
8E\J	.	8e\J	.	.	.	.	.
8E\L	f	8d\L	f	2r	.	8bb\L	f
8E\	.	8d\	.	.	.	16gg#\L	.
.	.	.	.	.	.	16ee\JJ	.
8E\	.	8d\	.	.	.	8bb\L	.
8E\J	.	8d\J	.	.	.	16gg#\L	.
.	.	.	.	.	.	16ee\JJ	.
=21	=21	=21	=21	=21	=21	=21	=21
8E\L	.	8c#/L	.	2r	.	(8aa\L	.
8E\	.	8c#/	.	.	.	8ccc#\J)	.
8E\	.	8B/	.	.	.	2ee\	.
8E\J	.	8A/J	.	.	.	.	.
8E\L	.	(8G#/L	.	8b/L	f	.	.
8E\	.	8B/	.	16g#/L	.	.	.
.	.	.	.	16e/JJ	.	.	.
8E\	.	8G#/	.	8b/L	.	(8.ddT\L	.
8E\J	.	8B/J)	.	16g#/L	.	.	.
.	.	.	.	16e/JJ	.	32cc#\LL	.
.	.	.	.	.	.	32dd\JJJ)	.
=22	=22	=22	=22	=22	=22	=22	=22
8E\L	.	(4e\	.	(8a\L	.	(8cc#\L	.
8E\	.	.	.	8cc#\J)	.	8ee\J)	.
8E\	.	4c#\)	.	2e/	.	4aa\	.
8E\J	.	.	.	.	.	.	.
8E\L	.	(8G#/L	.	.	.	8bb\L	.
8E\	.	8B/)	.	.	.	16gg#\L	.
.	.	.	.	.	.	16ee\JJ	.
8E\	.	(8G#/	.	(8.dT/L	.	8bb\L	.
8E\J	.	8B/J)	.	.	.	16gg#\L	.
.	.	.	.	32c#/LL	.	16ee\JJ	.
.	.	.	.	32d/JJJ)	.	.	.
=23	=23	=23	=23	=23	=23	=23	=23
8E\L	.	(4e\	.	(8c#/L	.	(8aa\L	.
8E\	.	.	.	8e/J)	.	8ccc#\J)	.
8E\	.	4c#\)	.	4a/	.	2ee\	.
8E\J	.	.	.	.	.	.	.
8E\L	.	(8G#/L	.	8b/L	.	.	.
8E\	.	8B/)	.	16g#/L	.	.	.
.	.	.	.	16e/JJ	.	.	.
8E\	.	(8G#/	.	8b/L	.	(8.ddT\L	.
8E\J	.	8B/J)	.	16g#/L	.	.	.
.	.	.	.	16e/JJ	.	32cc#\LL	.
.	.	.	.	.	.	32dd\JJJ)	.
=24	=24	=24	=24	=24	=24	=24	=24
4AA/	.	4A/	.	8ee\	.	8cc#\	.
.	.	.	.	4a/	.	4aa\	.
4AA/	.	4c#\	.	.	.	.	.
.	.	.	.	4gn/	.	4ggn\	.
4BB/	.	4d\	.	.	.	.	.
.	.	.	.	4f#/	.	4ff#\	.
4C#/	.	4A/	.	.	.	.	.
.	.	.	.	8e#/	.	8ee#\	.
=25	=25	=25	=25	=25	=25	=25	=25
8r	.	8r	.	(4.f#/	.	(4.ff#\	.
8D\	.	8A/	.	.	.	.	.
4D\	.	4A/	.	.	.	.	.
.	.	.	.	8g#/)	.	8gg#\)	.
8r	.	8r	.	(4.a/	.	(4.aa\	.
8d\	.	8f#\	.	.	.	.	.
4d\	.	4f#\	.	.	.	.	.
.	.	.	.	8a#/)	.	8aa#\)	.
=26	=26	=26	=26	=26	=26	=26	=26
8r	.	8r	.	(4.b\	.	(4.bb\	.
8D\	.	8F#/	.	.	.	.	.
4D\	.	4F#/	.	.	.	.	.
.	.	.	.	8cc#\)	.	8ccc#\)	.
!	!	!	!	! 16eeP/	!	! 16eeeP/	!
2r	.	2r	.	8ddp\L	.	8dddp\L	.
.	.	.	.	16cc#\L	.	16ccc#\L	.
.	.	.	.	16b\JJ	.	16bb\JJ	.
!	!	!	!	! 16bP/	!	! 16bbP/	!
.	.	.	.	8ap/L	.	8aap\L	.
.	.	.	.	16g#/L	.	16gg#\L	.
.	.	.	.	16f#/JJ	.	16ff#\JJ	.
=27	=27	=27	=27	=27	=27	=27	=27
8C#\L	.	4A/	.	4en/	.	4een\	.
8C#\	.	.	.	.	.	.	.
8F#\	.	2f#\	.	(2a/	.	16dd\LL	.
.	.	.	.	.	.	16cc#\	.
8F#\J	.	.	.	.	.	16b\	.
.	.	.	.	.	.	16a\JJ	.
8D\L	.	.	.	.	.	2bT\	.
8D\	.	.	.	.	.	.	.
8E\	.	(8e\L	.	4g#/)	.	.	.
8E\J	.	8d\J)	.	.	.	.	.
=28	=28	=28	=28	=28	=28	=28	=28
4AA/	.	8c#\L	.	8a/L	.	4a/	.
.	.	8c#'\	.	8e'/	.	.	.
4r	.	8c#'\	.	8e'/	.	4r	.
.	.	8c#'\J	.	8e'/J	.	.	.
2r	.	(8c#t/L	.	(8eT/L	.	2r	.
.	.	8B/)	.	8d/)	.	.	.
.	.	(8BT/	.	(8dT/	.	.	.
.	.	8A/J)	.	8c#/J)	.	.	.
=29	=29	=29	=29	=29	=29	=29	=29
4B\	p	8r	.	8r	.	(2.dd\	p
.	.	8B/L	p	8f#/L	p	.	.
4r	.	8B/	.	8f#/	.	.	.
.	.	8B/J	.	8f#/J	.	.	.
4A\	.	8r	.	8r	.	.	.
.	.	8B/L	.	(8f#/L	.	.	.
4r	.	8B/	.	8d/)	.	4ff#\)	.
.	.	8B/J	.	8d'/J	.	.	.
=30	=30	=30	=30	=30	=30	=30	=30
4G#\	.	8r	.	8r	.	(8ff#\L	.
.	.	8B/L	.	8d/L	.	8ee\J)	.
4r	.	8B/	.	8d/	.	2ee\	.
.	.	8B/J	.	8d/J	.	.	.
4A\	.	8r	.	8r	.	.	.
.	.	(8A/L	.	(8c#/L	.	.	.
4r	.	8B/	.	8d/	.	(8dd\L	.
.	.	8c#/J)	.	8e/J)	.	8cc#\J)	.
=31	=31	=31	=31	=31	=31	=31	=31
!	!	!	!	!	!	! 16cc#P/	!
4D\	.	8r	.	8r	.	4bp\	.
.	.	8d\L	.	8f#/L	.	.	.
4r	.	8d\	.	8f#/	.	(2a/	.
.	.	8d\J	.	8f#/J	.	.	.
4E\	.	8c#/L	.	8e/L	.	.	.
.	.	8c#/	.	8e/	.	.	.
4r	.	8B/	.	8d/	.	4g#/)	.
.	.	8B/J	.	8d/J	.	.	.
=32	=32	=32	=32	=32	=32	=32	=32
4AA/	.	(8A/L	.	(8c#/L	.	(4.a/	.
.	.	8B/)	.	8d/)	.	.	.
4r	.	8c#'/	.	8e'/	.	.	.
.	.	8d'/J	.	8e'/J	.	8b\)	.
2r	.	(8c#t/L	.	(8eT/L	.	4cc#\	.
.	.	8B/)	.	8d/)	.	.	.
.	.	(8BT/	.	(8dT/	.	4r	.
.	.	8A/J)	.	8c#/J)	.	.	.
=33	=33	=33	=33	=33	=33	=33	=33
4B\	.	8r	.	8r	.	(2.dd\	.
.	.	8B/L	.	8f#/L	.	.	.
4r	.	8B/	.	8f#/	.	.	.
.	.	8B/J	.	8f#/J	.	.	.
4A\	.	8r	.	8r	.	.	.
.	.	8B/L	.	8d/L	.	.	.
4r	.	8B/	.	8d/	.	4ff#\)	.
.	.	8B/J	.	8d/J	.	.	.
=34	=34	=34	=34	=34	=34	=34	=34
4G#\	.	8r	.	8r	.	(8ff#\L	.
.	.	8B/L	.	8d/L	.	8ee\J)	.
4r	.	8B/	.	8d/	.	2ee\	.
.	.	8B/J	.	8d/J	.	.	.
4A\	.	8r	.	8r	.	.	.
.	.	(8A/L	.	(8c#/L	.	.	.
4r	.	8B/	.	8d/	.	(8dd\L	.
.	.	8c#/J)	.	8e/J)	.	8cc#\J)	.
=35	=35	=35	=35	=35	=35	=35	=35
!	!	!	!	!	!	! 16cc#P/	!
4D\	.	8r	.	8r	.	4bp\	.
.	.	8d\L	.	8f#/L	.	.	.
4r	.	8d\	.	8f#/	.	(2a/	.
.	.	8d\J	.	8f#/J	.	.	.
4E\	.	8c#/L	.	8e/L	.	.	.
.	.	8c#/	.	8e/	.	.	.
4r	.	8B/	.	8d/	.	4g#/)	.
.	.	8B/J	.	8d/J	.	.	.
=36	=36	=36	=36	=36	=36	=36	=36
8Fn\L	f	8A/L	f	8cn/L	f	[2a/	f
8F\	.	8A/	.	8c/	.	.	.
8F\	.	8A/	.	8c/	.	.	.
8F\J	.	8A/J	.	8c/J	.	.	.
8F\L	.	8A/L	.	8c/L	.	8a\L]	.
8F\	.	8A/	.	8c/	.	16b\L	.
.	.	.	.	.	.	16ccn\JJ	.
8F\	.	8A/	.	8c/	.	16dd\LL	.
.	.	.	.	.	.	16ee\	.
8F\J	.	8A/J	.	8c/J	.	16ffn\	.
.	.	.	.	.	.	16gg#\JJ	.
=37	=37	=37	=37	=37	=37	=37	=37
8Fn\L	.	8d#\L	.	8cn/L	.	2aa\	.
8F\	.	8d#\	.	8c/	.	.	.
8F\	.	8d#\	.	8c/	.	.	.
8F\J	.	8d#\J	.	8c/J	.	.	.
8F#\L	.	8ccn\L	.	8a/L	.	2dd#\	.
8F#\	.	8cc\	.	8a/	.	.	.
8F#\	.	8cc\	.	8a/	.	.	.
8F#\J	.	8cc\J	.	8a/J	.	.	.
=38	=38	=38	=38	=38	=38	=38	=38
8G#\L	.	8b\L	.	8e/L	.	[2ddn\	.
8G#\	.	8b\	.	8e/	.	.	.
8G#\	.	8b\	.	8e/	.	.	.
8G#\J	.	8b\J	.	8e/J	.	.	.
8G#\L	.	8g#\L	.	8b/L	.	8dd\L]	.
8G#\	.	8g#\	.	8b/	.	16ee\L	.
.	.	.	.	.	.	16ff#\JJ	.
8F#\	.	8f#\	.	8a/	.	16gg#\LL	.
.	.	.	.	.	.	16aa\	.
8F#\J	.	8f#\J	.	8a/J	.	16bb\	.
.	.	.	.	.	.	16ccc#\JJ	.
=39	=39	=39	=39	=39	=39	=39	=39
8E\L	.	8B/L	.	8g#/L	.	2ddd\	.
8E\	.	8B/	.	8g#/	.	.	.
8E\	.	8B/	.	8g#/	.	.	.
8E\J	.	8B/J	.	8g#/J	.	.	.
8GG#/L	.	8E/L	.	8B/L	.	2d/	.
8GG#/	.	8E/	.	8B/	.	.	.
8GG#/	.	8E/	.	8B/	.	.	.
8GG#/J	.	8E/J	.	8B/J	.	.	.
=40	=40	=40	=40	=40	=40	=40	=40
8AA/L	.	4E/	.	8A/L	.	4c#/	.
8AA/	.	.	.	16c#/L	.	.	.
.	.	.	.	16e/JJ	.	.	.
8AA/	.	4r	.	4a/	.	8r	.
8AA/J	.	.	.	.	.	16ee\LL	.
.	.	.	.	.	.	16cc#\JJ	.
8C#/L	.	8e\L	.	2r	.	8aa\L	.
8C#/	.	8e\	.	.	.	16ee\L	.
.	.	.	.	.	.	16cc#\JJ	.
8C#/	.	8e\	.	.	.	8aa\L	.
8C#/J	.	8e\J	.	.	.	16ee\L	.
.	.	.	.	.	.	16cc#\JJ	.
=41	=41	=41	=41	=41	=41	=41	=41
8D\L	.	4d\	.	8f#/L	.	4b\	.
8D\	.	.	.	16b/L	.	.	.
.	.	.	.	16dd/JJ	.	.	.
8D\	.	4r	.	4ff#\	.	8r	.
8D\J	.	.	.	.	.	16dd\LL	.
.	.	.	.	.	.	16b\JJ	.
8D\L	.	8B/L	.	2r	.	8ff#\L	.
8D\	.	8B/	.	.	.	16dd\L	.
.	.	.	.	.	.	16b\JJ	.
8D\	.	8B/	.	.	.	8ff#\L	.
8D\J	.	8B/J	.	.	.	16dd\L	.
.	.	.	.	.	.	16b\JJ	.
=42	=42	=42	=42	=42	=42	=42	=42
8E\L	.	8E/L	.	8A/	.	8cc#\	.
8E\	.	8E/	.	4c#/	.	4ee\	.
8E\	.	8E/	.	.	.	.	.
8E\J	.	8E/J	.	4B/	.	4dd\	.
8EE/L	.	8E/L	.	.	.	.	.
8EE/	.	8E/	.	4A/	.	4cc#\	.
8EE/	.	8E/	.	.	.	.	.
8EE/J	.	8E/J	.	8G#/	.	8b\	.
=43	=43	=43	=43	=43	=43	=43	=43
8AA/L	.	4E/	.	8A/L	.	4a/	.
8AA/	.	.	.	16c#/L	.	.	.
.	.	.	.	16e/JJ	.	.	.
8AA/	.	4r	.	4a/	.	8r	.
8AA/J	.	.	.	.	.	16ee\LL	.
.	.	.	.	.	.	16cc#\JJ	.
8C#/L	.	8e\L	.	2r	.	8aa\L	.
8C#/	.	8e\	.	.	.	16ee\L	.
.	.	.	.	.	.	16cc#\JJ	.
8C#/	.	8e\	.	.	.	8aa\L	.
8C#/J	.	8e\J	.	.	.	16ee\L	.
.	.	.	.	.	.	16cc#\JJ	.
=44	=44	=44	=44	=44	=44	=44	=44
8D\L	.	4d\	.	8f#/L	.	4b\	.
8D\	.	.	.	16b/L	.	.	.
.	.	.	.	16dd/JJ	.	.	.
8D\	.	4r	.	4ff#\	.	8r	.
8D\J	.	.	.	.	.	16dd\LL	.
.	.	.	.	.	.	16b\JJ	.
8D\L	.	8B/L	.	2r	.	8ff#\L	.
8D\	.	8B/	.	.	.	16dd\L	.
.	.	.	.	.	.	16b\JJ	.
8D\	.	8B/	.	.	.	8bb\L	.
8D\J	.	8B/J	.	.	.	16ff#\L	.
.	.	.	.	.	.	16dd\JJ	.
=45	=45	=45	=45	=45	=45	=45	=45
4D\	.	4B/	.	4f#/	.	8ddd\L	.
.	.	.	.	.	.	16bb\L	.
.	.	.	.	.	.	16ff#\JJ	.
4r	.	4r	.	4r	.	8fff#'\L	.
.	.	.	.	.	.	8eee'\J	.
2r	.	2r	.	2r	.	8ddd'\L	.
.	.	.	.	.	.	8ccc#'\	.
.	.	.	.	.	.	8bb'\	.
.	.	.	.	.	.	8aa#'\J	.
=46	=46	=46	=46	=46	=46	=46	=46
4D\	.	4d\	.	4f#/	.	16bb\LL	.
.	.	.	.	.	.	16ccc#\	.
.	.	.	.	.	.	16bb\	.
.	.	.	.	.	.	16ccc#\JJ	.
4r	.	4r	.	4r	.	16ddd\LL	.
.	.	.	.	.	.	16eee\	.
.	.	.	.	.	.	16ddd\	.
.	.	.	.	.	.	16eee\JJ	.
4r	.	4r	.	4r	.	8fff#\L	.
.	.	.	.	.	.	8ddd\	.
4D#\	.	4B/	.	4f#/	.	8bb\	.
.	.	.	.	.	.	8aan\J	.
=47	=47	=47	=47	=47	=47	=47	=47
2E\	.	2B/	.	(4e/	.	16gg#\LL	.
.	.	.	.	.	.	16aa\	.
.	.	.	.	.	.	16bb\	.
.	.	.	.	.	.	16aa\JJ	.
.	.	.	.	4g#/)	.	16gg#\LL	.
.	.	.	.	.	.	16ff#\	.
.	.	.	.	.	.	16ee\	.
.	.	.	.	.	.	16dd\JJ	.
2AA/	.	(4A/	.	(4a/	.	16cc#\LL	.
.	.	.	.	.	.	16dd\	.
.	.	.	.	.	.	16ee\	.
.	.	.	.	.	.	16dd\JJ	.
.	.	4c#\)	.	4e/)	.	16cc#/LL	.
.	.	.	.	.	.	16b/	.
.	.	.	.	.	.	16a/	.
.	.	.	.	.	.	16gn/JJ	.
=48	=48	=48	=48	=48	=48	=48	=48
4Dn\	.	4A/	.	4d/	.	16f#/LL	.
.	.	.	.	.	.	16g#/	.
.	.	.	.	.	.	16a/	.
.	.	.	.	.	.	16g#/JJ	.
4r	.	4r	.	4r	.	16a/LL	.
.	.	.	.	.	.	16a#/	.
.	.	.	.	.	.	16b/	.
.	.	.	.	.	.	16a#/JJ	.
2r	.	2r	.	2r	.	16b\LL	.
.	.	.	.	.	.	16cc#\	.
.	.	.	.	.	.	16dd\	.
.	.	.	.	.	.	16cc#\JJ	.
.	.	.	.	.	.	16dd\LL	.
.	.	.	.	.	.	16ee#\	.
.	.	.	.	.	.	16ff#\	.
.	.	.	.	.	.	16ee#\JJ	.
=49	=49	=49	=49	=49	=49	=49	=49
4D\	.	4d\	.	4b\	.	16ff#\LL	.
.	.	.	.	.	.	16aa#\	.
.	.	.	.	.	.	16bb\	.
.	.	.	.	.	.	16aa#\JJ	.
4r	.	4r	.	4r	.	16bb\LL	.
.	.	.	.	.	.	16ccc#\	.
.	.	.	.	.	.	16ddd\	.
.	.	.	.	.	.	16ccc#\JJ	.
2r	.	2r	.	2r	.	16ddd\LL	.
.	.	.	.	.	.	16ccc#\	.
.	.	.	.	.	.	16bb\	.
.	.	.	.	.	.	16aan\JJ	.
.	.	.	.	.	.	16gg#\LL	.
.	.	.	.	.	.	16ff#\	.
.	.	.	.	.	.	16een\	.
.	.	.	.	.	.	16dd\JJ	.
=50	=50	=50	=50	=50	=50	=50	=50
8E\L	.	8c#\L	.	8a/L	.	(16cc#\LK	.
.	.	.	.	.	.	8.ee\J)	.
8E\	.	8c#\	.	8a/	.	.	.
8F#\	.	8c#\	.	8a/	.	16dd\LL	.
.	.	.	.	.	.	16cc#\	.
8F#\J	.	8c#\J	.	8a/J	.	16b\	.
.	.	.	.	.	.	16a\JJ	.
8D\L	.	8f#\L	.	8a/L	.	2bT\	.
8D\	.	8f#\	.	8a/	.	.	.
8E\	.	8e\	.	8g#/	.	.	.
8E\J	.	8d\J	.	8g#/J	.	.	.
=51	=51	=51	=51	=51	=51	=51	=51
4AA/	.	16c#\LL	.	4a/	.	4a/	.
.	.	16e\	.	.	.	.	.
.	.	16cc#\	.	.	.	.	.
.	.	16b\JJ	.	.	.	.	.
4C#/	.	16a\LL	.	4r	.	4r	.
.	.	16g#\	.	.	.	.	.
.	.	16f#\	.	.	.	.	.
.	.	16e\JJ	.	.	.	.	.
4BB/	.	16d\LL	.	4r	.	4r	.
.	.	16c#\	.	.	.	.	.
.	.	16d\	.	.	.	.	.
.	.	16B\JJ	.	.	.	.	.
4E\	.	16d\LL	.	8.gg#t\L	.	8.bbT\L	.
.	.	16c#\	.	.	.	.	.
.	.	16d\	.	.	.	.	.
.	.	16e\JJ	.	32ff#\LL	.	32aa\LL	.
.	.	.	.	32gg#\JJJ	.	32bb\JJJ	.
=52	=52	=52	=52	=52	=52	=52	=52
4AA/	.	16c#\LL	.	4aa\	.	4ccc#\	.
.	.	16a\	.	.	.	.	.
.	.	16cc#\	.	.	.	.	.
.	.	16b\JJ	.	.	.	.	.
4C#/	.	16a\LL	.	4r	.	4r	.
.	.	16g#\	.	.	.	.	.
.	.	16f#\	.	.	.	.	.
.	.	16e\JJ	.	.	.	.	.
4BB/	.	16d\LL	.	4r	.	4r	.
.	.	16c#\	.	.	.	.	.
.	.	16d\	.	.	.	.	.
.	.	16B\JJ	.	.	.	.	.
4E\	.	16d\LL	.	8.gg#t\L	.	8.bbT\L	.
.	.	16c#\	.	.	.	.	.
.	.	16d\	.	.	.	.	.
.	.	16e\JJ	.	32ff#\LL	.	32aa\LL	.
.	.	.	.	32gg#\JJJ	.	32bb\JJJ	.
=53	=53	=53	=53	=53	=53	=53	=53
4AA/	.	4c#\	.	4aa\	.	4aa\	.
4A\	.	4e\	.	4a/ 4e/ 4A/	.	4a/ 4e/ 4c#/	.
4AA/	.	4A/	.	4a/ 4e/ 4A/	.	4a/ 4e/ 4c#/	.
4r	.	4r	.	4r	.	4r	.
=54	=54	=54	=54	=54	=54	=54	=54
1r	.	(4.a\	.	1r	.	1r	.
.	.	16b\LL	.	.	.	.	.
.	.	16a\JJ)	.	.	.	.	.
.	.	8gn'\L	.	.	.	.	.
.	.	8f#'\	.	.	.	.	.
.	.	8e'\	.	.	.	.	.
.	.	8d'\J	.	.	.	.	.
=55	=55	=55	=55	=55	=55	=55	=55
1r	.	4c#\	.	(4.aa\	.	1r	.
.	.	4d\	.	.	.	.	.
.	.	.	.	16bb\LL	.	.	.
.	.	.	.	16aa\JJ)	.	.	.
.	.	4e\	.	8ggn'\L	.	.	.
.	.	.	.	8ff#'\	.	.	.
.	.	4r	.	8ee'\	.	.	.
.	.	.	.	8dd'\J	.	.	.
=56	=56	=56	=56	=56	=56	=56	=56
(4.A\	.	4e\	.	4cc#\	.	1r	.
.	.	4f#\	.	4dd\	.	.	.
16B\LL	.	.	.	.	.	.	.
16A\JJ)	.	.	.	.	.	.	.
8Gn'\L	.	4g\	.	4ee\	.	.	.
8F#'\	.	.	.	.	.	.	.
8E'\	.	4r	.	4r	.	.	.
8D'\J	.	.	.	.	.	.	.
=57	=57	=57	=57	=57	=57	=57	=57
4C#/	.	2r	.	4ee\	.	(4.aa\	.
4D\	.	.	.	4ff#\	.	.	.
.	.	.	.	.	.	16bb\LL	.
.	.	.	.	.	.	16aa\JJ)	.
4E\	.	(4.a\	.	4gg\	.	8ggn'\L	.
.	.	.	.	.	.	8ff#'\	.
4r	.	.	.	4r	.	8ee'\	.
.	.	16b\LL	.	.	.	8dd'\J	.
.	.	16a\JJ)	.	.	.	.	.
=58	=58	=58	=58	=58	=58	=58	=58
2r	.	8g\L	.	(4.aa\	.	8cc#\L	.
.	.	8f#\	.	.	.	8dd\	.
.	.	8e\	.	.	.	8ee\	.
.	.	8d\J	.	16bb\LL	.	8ff#\J	.
.	.	.	.	16aa\JJ)	.	.	.
(4.A\	.	4c#\	.	8gg\L	.	4ee\	.
.	.	.	.	8ff#\	.	.	.
.	.	4r	.	8ee\	.	4r	.
16B\LL	.	.	.	8dd\J	.	.	.
16A\JJ)	.	.	.	.	.	.	.
=59	=59	=59	=59	=59	=59	=59	=59
8G\L	.	2r	.	8cc#\L	.	2r	.
8F#\	.	.	.	8dd\	.	.	.
8E\	.	.	.	8ee\	.	.	.
8D\J	.	.	.	8ff#\J	.	.	.
4C#/	.	4c#\	.	4gg\	.	4ee\	.
4r	.	4B/	.	4r	.	4dd\	.
=60	=60	=60	=60	=60	=60	=60	=60
4F#\xx	p	8A#/Lxx	p	2ff#\xx	p	8cc#/Lxx	p
.	.	8A#/	.	.	.	8c#/	.
4r	.	8A#/	.	.	.	8c#/	.
.	.	8A#/J	.	.	.	8c#/J	.
2r	.	8A#/L	.	(8.ggT\L	.	8c#/L	.
.	.	8A#/	.	.	.	8c#/	.
.	.	.	.	16ff#\Jk)	.	.	.
.	.	8A#/	.	(8.ggT\L	.	8c#/	.
.	.	8A#/J	.	.	.	8c#/J	.
.	.	.	.	16ff#\Jk)	.	.	.
=61	=61	=61	=61	=61	=61	=61	=61
4B\	.	8B/L	.	(4.ff#\	.	8d/L	.
.	.	8B/	.	.	.	8d/	.
4F#\	.	8B/	.	.	.	8d/	.
.	.	8B/J	.	8bb\)	.	8d/J	.
4D\	.	8B/L	.	4ff#\	.	8d/L	.
.	.	8B/	.	.	.	8d/	.
4BB/	.	8B/	.	4ff#\	.	8d/	.
.	.	8B/J	.	.	.	8d/J	.
=62	=62	=62	=62	=62	=62	=62	=62
4F#\	.	8A#/L	.	2ff#\	.	8c#/L	.
.	.	8A#/	.	.	.	8c#/	.
4r	.	8A#/	.	.	.	8c#/	.
.	.	8A#/J	.	.	.	8c#/J	.
2r	.	8A#/L	.	(8.ggT\L	.	8c#/L	.
.	.	8A#/	.	.	.	8c#/	.
.	.	.	.	16ff#\Jk)	.	.	.
.	.	8A#/	.	(8.ggT\L	.	8c#/	.
.	.	8A#/J	.	.	.	8c#/J	.
.	.	.	.	16ff#\Jk)	.	.	.
=63	=63	=63	=63	=63	=63	=63	=63
4B\	.	8B/L	.	(4.ff#\	.	8d/L	.
.	.	8B/	.	.	.	8d/	.
4F#\	.	8B/	.	.	.	8d/	.
.	.	8B/J	.	8bb\)	.	8d/J	.
4D\	.	8B/L	.	4ff#\	.	4d/	.
.	.	8B/	.	.	.	.	.
4BB/	.	8B/	.	4gg#\	.	4ddd\	.
.	.	8B/J	.	.	.	.	.
=64	=64	=64	=64	=64	=64	=64	=64
8AA/L	.	(8B/L	.	(8gg#\L	.	(8ddd\L	.
8AA/	.	8An/)	.	8aa\J)	.	8ccc#\J)	.
8AA/	.	8A'/	.	(2aa\	.	(2ccc#\	.
8AA/J	.	8A'/J	.	.	.	.	.
8AA/L	.	8A/L	.	.	.	.	.
8AA/	.	8A/	.	.	.	.	.
8AA/	.	8A/	.	4ggn\)	.	4bb\)	.
8AA/J	.	8A/J	.	.	.	.	.
=65	=65	=65	=65	=65	=65	=65	=65
8AA/L	.	8A/L	.	(8gg\L	.	(8bb\L	.
8AA/	.	8A/	.	8ff#\J)	.	8aa\J)	.
8AA/	.	8A/	.	2ff#\	.	2aa\	.
8AA/J	.	8A/J	.	.	.	.	.
8AA/L	.	8A/L	.	.	.	.	.
8AA/	.	8A/	.	.	.	.	.
8AA/	.	8A/	.	4gg\	.	4bb\	.
8AA/J	.	8A/J	.	.	.	.	.
=66	=66	=66	=66	=66	=66	=66	=66
8AA/L	.	8A/L	.	(8gg\L	.	(8bb\L	.
8AA/	.	8A/	.	8ff#\J)	.	8aa\J)	.
8AA/	.	8A/	.	(2ff#\	.	(2aa\	.
8AA/J	.	8A/J	.	.	.	.	.
8AA/L	.	8B/L	.	.	.	.	.
8AA/	.	8B/	.	.	.	.	.
8AA/	.	8c#/	.	4ee\)	.	4gg\)	.
8AA/J	.	8c#/J	.	.	.	.	.
=67	=67	=67	=67	=67	=67	=67	=67
8AA/L	.	(8c#\L	.	(8ee\L	.	(8gg\L	.
8AA/	.	8d\)	.	8dd\J)	.	8ff#\J)	.
8AA/	.	8d'\	.	2dd\	.	2ff#\	.
8AA/J	.	8d'\J	.	.	.	.	.
8AA/L	.	(8f#\L	.	.	.	.	.
8AA/	.	8a\)	.	.	.	.	.
8AA/	.	(8g\	.	4cc#\	.	4ee\	.
8AA/J	.	8e\J)	.	.	.	.	.
=68	=68	=68	=68	=68	=68	=68	=68
8D\Lxx	f	4d\xx	f	16dd\LLxx	f	16ff#\LLxx	f
.	.	.	.	16ee\	.	16gg\	.
8D\	.	.	.	16dd\	.	16ff#\	.
.	.	.	.	16cc#\JJ	.	16ee\JJ	.
8D\	.	4r	.	16dd\LL	.	16ff#\LL	.
.	.	.	.	16ff#\	.	16aa\	.
8D\J	.	.	.	16ee\	.	16gg\	.
.	.	.	.	16dd\JJ	.	16ff#\JJ	.
8D\L	.	4d\	.	16ee\LL	.	16gg\LL	.
.	.	.	.	16ff#\	.	16aa\	.
8D\	.	.	.	16ee\	.	16gg\	.
.	.	.	.	16dd\JJ	.	16ff#\JJ	.
8D\	.	4r	.	16ee\LL	.	16gg\LL	.
.	.	.	.	16gg\	.	16bb\	.
8D\J	.	.	.	16ff#\	.	16aa\	.
.	.	.	.	16ee\JJ	.	16gg\JJ	.
=69	=69	=69	=69	=69	=69	=69	=69
4D\	.	4d\	.	16ff#\LL	.	16aa\LL	.
.	.	.	.	16dd\	.	16dd\	.
.	.	.	.	16cc#\	.	16ee\	.
.	.	.	.	16dd\JJ	.	16ff#\JJ	.
4r	.	4r	.	16ee\LL	.	16gg\LL	.
.	.	.	.	16ff#\	.	16aa\	.
.	.	.	.	16gg\	.	16bb\	.
.	.	.	.	16ee\JJ	.	16ccc#\JJ	.
8r	.	8r	.	8ff#\L	.	8ddd\L	.
(8F#\L	.	(8a\L	.	8ff#\	.	8aa\	.
8G\	.	8b\)	.	8ee\	.	8gg\	.
8G#\J)	.	8b'\J	.	8dd\J	.	8ff#\J	.
=70	=70	=70	=70	=70	=70	=70	=70
4A\	.	(4e\	.	(4cc#\	.	16ee\LL	.
.	.	.	.	.	.	16ee\	.
.	.	.	.	.	.	16cc#\	.
.	.	.	.	.	.	16a\JJ	.
4D\	.	4f#\	.	4dd\	.	16ff#\LL	.
.	.	.	.	.	.	16aa\	.
.	.	.	.	.	.	16ff#\	.
.	.	.	.	.	.	16dd\JJ	.
4AA/	.	4g\	.	4ee\	.	16cc#\LL	.
.	.	.	.	.	.	16ee\	.
.	.	.	.	.	.	16cc#\	.
.	.	.	.	.	.	16a\JJ	.
4D\	.	4f#\)	.	4dd\)	.	16ff#\LL	.
.	.	.	.	.	.	16aa\	.
.	.	.	.	.	.	16ff#\	.
.	.	.	.	.	.	16dd\JJ	.
=71	=71	=71	=71	=71	=71	=71	=71
4A\	.	4e\	.	4cc#\	.	4ee\	.
4AA/	.	4A/	.	(16A/LL	.	(16A/LL	.
.	.	.	.	16B/	.	16B/	.
.	.	.	.	16c#/	.	16c#/	.
.	.	.	.	16B/JJ)	.	16B/JJ)	.
4AA/	.	4A/	.	4A'/	.	4A'/	.
4r	.	4r	.	4r	.	4r	.
=72	=72	=72	=72	=72	=72	=72	=72
8D\L	.	8d\L	.	4ff#\ 4a\	.	4aa\ 4a\	.
8F#\	.	8d\	.	.	.	.	.
8A\	.	8d\	.	4dd\	.	4ff#\ 4a\	.
8F#\J	.	8d\J	.	.	.	.	.
4D\	.	8d\L	p	8r	.	8r	.
.	.	8d\	.	8f#/L	p	8a/L	p
4r	.	8d\	.	8f#/	.	8a/	.
.	.	8d\J	.	8f#/J	.	8a/J	.
=73	=73	=73	=73	=73	=73	=73	=73
1r	.	8d\L	.	8.gT/L	.	8.bT/L	.
.	.	8d\	.	.	.	.	.
.	.	.	.	32f#/LL	.	32a/LL	.
.	.	.	.	32g/JJJ	.	32b/JJJ	.
.	.	8d\	.	4f#/	.	4a/	.
.	.	8d\J	.	.	.	.	.
.	.	4d\	.	16r	.	16r	.
.	.	.	.	16f#/LL	.	16a\LL	.
.	.	.	.	16g/	.	16b\	.
.	.	.	.	16a/JJ	.	16cc#\JJ	.
.	.	4r	.	16b\LL	.	16dd\LL	.
.	.	.	.	16cc#\	.	16ee\	.
.	.	.	.	16dd\	.	16ff#\	.
.	.	.	.	16ee\JJ	.	16gg\JJ	.
=74	=74	=74	=74	=74	=74	=74	=74
8D\L	.	8d\L	f	4ff#\ 4a\	f	4aa\ 4a\	f
8F#\	.	8d\	.	.	.	.	.
8A\	.	8d\	.	4dd\	.	4ff#\ 4a\	.
8F#\J	.	8d\J	.	.	.	.	.
4D\	.	8d\L	p	8r	.	8r	.
.	.	8d\	.	8f#/L	p	8a/L	p
4r	.	8d\	.	8f#/	.	8a/	.
.	.	8d\J	.	8f#/J	.	8a/J	.
=75	=75	=75	=75	=75	=75	=75	=75
2r	.	8d\L	.	8.eT/L	.	8.gT/L	.
.	.	8d\	.	.	.	.	.
.	.	.	.	32d/LL	.	32f#/LL	.
.	.	.	.	32e/JJJ	.	32g/JJJ	.
.	.	8d\	.	4d/	.	4f#/	.
.	.	8d\J	.	.	.	.	.
8F#\L	.	8A/L	f	4r	.	(8dd\L	f
8F#\	.	8A/	.	.	.	8ff#\)	.
8F#\	.	8A/	.	(4a/	f	8aa'\	.
8F#\J	.	8A/J	.	.	.	8ddd'\J	.
=76	=76	=76	=76	=76	=76	=76	=76
8E\L	.	1A/	.	4g/	.	(8ddd\L	.
8E\	.	.	.	.	.	8ccc#\)	.
8D\	.	.	.	4f#/)	.	8bb'\	.
8D\J	.	.	.	.	.	8aa'\J	.
8C#/L	.	.	.	(8f#/L	.	(8aa\L	.
8C#/	.	.	.	8e/)	.	8gg\)	.
8AA/	.	.	.	8d'/	.	8ff#'\	.
8AA/J	.	.	.	8c#'/J	.	8ee'\J	.
=77	=77	=77	=77	=77	=77	=77	=77
8D\L	.	2A/	.	(16d/LL	.	(16ff#\LL	.
.	.	.	.	16f#/)	.	16aa\)	.
8D\	.	.	.	(16e/	.	(16gg\	.
.	.	.	.	16g/JJ)	.	16bb\JJ)	.
8D\	.	.	.	4f#/	.	4aa\	.
8D\J	.	.	.	.	.	.	.
8D\L	p	[2F#/	p	4r	.	(8b\L	p
8D\	.	.	.	.	.	8dd\)	.
8D\	.	.	.	(4f#/	p	8ff#'\	.
8D\J	.	.	.	.	.	8bb'\J	.
=78	=78	=78	=78	=78	=78	=78	=78
8C#/L	.	1F#/]	.	4e/	.	(8bb\L	.
8C#/	.	.	.	.	.	8aa#\)	.
8BB/	.	.	.	4d/)	.	8gg'\	.
8BB/J	.	.	.	.	.	8ff#'\J	.
8AA#/L	.	.	.	(8d/L	.	(8ff#\L	.
8AA#/	.	.	.	8c#/)	.	8ee\)	.
8FF#/	.	.	.	8B'/	.	8dd'\	.
8FF#/J	.	.	.	8A#'/J	.	8cc#'\J	.
=79	=79	=79	=79	=79	=79	=79	=79
8BB/L	.	2F#/	.	(16B/LL	.	(16dd\LL	.
.	.	.	.	16d/)	.	16ff#\)	.
8BB/	.	.	.	(16c#/	.	(16ee\	.
.	.	.	.	16e/JJ)	.	16gg\JJ)	.
8BB/	.	.	.	4d/	.	4ff#\	.
8BB/J	.	.	.	.	.	.	.
8BB/L	f	[2d\	f	4r	.	(8g\L	f
8BB/	.	.	.	.	.	8b\)	.
8BB/	.	.	.	(4dd\	f	8dd'\	.
8BB/J	.	.	.	.	.	8gg'\J	.
=80	=80	=80	=80	=80	=80	=80	=80
8AAn\L	.	1d\]	.	4ccn\	.	(8gg\L	.
8AA\	.	.	.	.	.	8ff#\)	.
8G\	.	.	.	4b\)	.	8ee'\	.
8G\J	.	.	.	.	.	8dd'\J	.
8F#\L	.	.	.	(8b/L	.	(8dd\L	.
8F#\	.	.	.	8a/)	.	8ccn\)	.
8D\	.	.	.	8g'/	.	8b'\	.
8D\J	.	.	.	8f#'/J	.	8a'\J	.
=81	=81	=81	=81	=81	=81	=81	=81
4G\	.	4d\	.	4g/	.	8b\L	.
.	.	.	.	.	.	16cc#\L	.
.	.	.	.	.	.	16dd\JJ	.
4r	.	4r	.	4r	.	16ee\LL	.
.	.	.	.	.	.	16ff#\	.
.	.	.	.	.	.	16gg\	.
.	.	.	.	.	.	16aa\JJ	.
8A\L	p	8d#\L	p	8f#/L	p	[2bb\	p
8A\	.	8d#\	.	8f#/	.	.	.
8A\	.	8d#\	.	8f#/	.	.	.
8A\J	.	8d#\J	.	8f#/J	.	.	.
=82	=82	=82	=82	=82	=82	=82	=82
8G\L	.	(8e\L	.	8e/L	.	4bb\]	.
8G\	.	8B\)	.	8e/	.	.	.
!	!	!	!	!	!	! 16aaP/	!
8G\	.	8B'\	.	8e/	.	4ggp\	.
8G\J	.	8B'\J	.	8e/J	.	.	.
!	!	!	!	!	!	! 16ff#P/	!
8G'\L	.	(8B\L	.	(8e/L	.	4.eep\	.
8G'\	.	8e\)	.	8g/)	.	.	.
(8G\	.	8e'\	.	8b'/	.	.	.
8G#\J)	.	8e'\J	.	8b'/J	.	8dd\	.
=83	=83	=83	=83	=83	=83	=83	=83
8A\L	.	4e\	.	8.bT/L	.	8.ddT\L	.
8AA\	.	.	.	.	.	.	.
.	.	.	.	32a/LL	.	32cc#\LL	.
.	.	.	.	32b/JJJ	.	32dd\JJJ	.
8AA\	.	4e\	.	4a/	.	4cc#\	.
8AA\J	.	.	.	.	.	.	.
8AA/L	f	8g\L	f	2r	.	8ee\L	f
8AA/	.	8g\	.	.	.	16cc#\L	.
.	.	.	.	.	.	16a\JJ	.
8AA/	.	8g\	.	.	.	8ee\L	.
8AA/J	.	8g\J	.	.	.	16cc#\L	.
.	.	.	.	.	.	16a\JJ	.
=84	=84	=84	=84	=84	=84	=84	=84
8AA/L	.	8f#\L	.	2r	.	(8dd\L	.
8AA/	.	8a\	.	.	.	8ff#\J)	.
8AA/	.	8f#\	.	.	.	2aa\	.
8AA/J	.	8dn\J	.	.	.	.	.
8AA/L	.	(8c#/L	.	8e/L	f	.	.
8AA/	.	8E/)	.	16c#/L	.	.	.
.	.	.	.	16A/JJ	.	.	.
8AA/	.	(8c#/	.	8e/L	.	8.ggT\L	.
8AA/J	.	8E/J)	.	16c#/L	.	.	.
.	.	.	.	16A/JJ	.	32ff#\LL	.
.	.	.	.	.	.	32gg\JJJ	.
=85	=85	=85	=85	=85	=85	=85	=85
8AA/L	.	(8A/L	.	(8d/L	.	(8ff#\L	.
8AA/	.	8d/J)	.	8f#/J)	.	8aa\J)	.
8AA/	.	4f#\	.	2a/	.	4dd\	.
8AA/J	.	.	.	.	.	.	.
8AA/L	.	(8c#\L	.	.	.	8ee\L	.
8AA/	.	8e\	.	.	.	16cc#\L	.
.	.	.	.	.	.	16a\JJ	.
8AA/	.	8c#\	.	8.gT/L	.	8ee\L	.
8AA/J	.	8e\J)	.	.	.	16cc#\L	.
.	.	.	.	32f#/LL	.	16a\JJ	.
.	.	.	.	32g/JJJ	.	.	.
=86	=86	=86	=86	=86	=86	=86	=86
8AA/L	.	(8A/L	.	(8f#/L	.	(8dd\L	.
8AA/	.	8d/J)	.	8a/J)	.	8ff#\J)	.
8AA/	.	4F#/	.	4d/	.	2aa\	.
8AA/J	.	.	.	.	.	.	.
8AA/L	.	(8c#/L	.	8e/L	.	.	.
8AA/	.	8E/)	.	16c#/L	.	.	.
.	.	.	.	16A/JJ	.	.	.
8AA/	.	(8c#/	.	8e/L	.	8.ggT\L	.
8AA/J	.	8E/J)	.	16c#/L	.	.	.
.	.	.	.	16A/JJ	.	32ff#\LL	.
.	.	.	.	.	.	32gg\JJJ	.
=87	=87	=87	=87	=87	=87	=87	=87
8D\L	.	4D/	.	8a/ 8d/	.	8ff#\	.
8D\	.	.	.	4dd\	.	4ddd\	.
8D\	.	4f#\	.	.	.	.	.
8D\J	.	.	.	4ccn\	.	4cccn\	.
8E\L	.	4g\	.	.	.	.	.
8E\	.	.	.	4b\	.	4bb\	.
8F#\	.	4d\	.	.	.	.	.
8F#\J	.	.	.	8a#/	.	8aa#\	.
=88	=88	=88	=88	=88	=88	=88	=88
8r	.	8r	.	(4.b\	.	(4.bb\	.
8G\	.	8d\	.	.	.	.	.
4G\	.	4d\	.	.	.	.	.
.	.	.	.	8cc#\)	.	8ccc#\)	.
8r	.	8r	.	(4.dd\	.	(4.ddd\	.
8GG/	.	8B/	.	.	.	.	.
4GG/	.	4B/	.	.	.	.	.
.	.	.	.	8b\)	.	8bb\)	.
=89	=89	=89	=89	=89	=89	=89	=89
8r	.	8r	.	(4.g/	.	(4.gg\	.
8G\	.	8B/	.	.	.	.	.
4G\	.	4B/	.	.	.	.	.
.	.	.	.	8e/)	.	8ee\)	.
!	!	!	!	! 16cc#P/	!	! 16ccc#P/	!
2r	.	2r	.	8bp/L	.	8bbp\L	.
.	.	.	.	16an/L	.	16aan\L	.
.	.	.	.	16g/JJ	.	16gg\JJ	.
!	!	!	!	! 16aP/	!	! 16aaP/	!
.	.	.	.	8gp/L	.	8ggp\L	.
.	.	.	.	16f#/L	.	16ff#\L	.
.	.	.	.	16e/JJ	.	16ee\JJ	.
=90	=90	=90	=90	=90	=90	=90	=90
8F#\L	.	8A/L	.	8d/L	.	[4dd\	.
8F#\	.	8A/	.	8d/	.	.	.
8B\	.	8d/	.	8f#/	.	(16dd\LL]	.
.	.	.	.	.	.	16ee\)	.
8B\J	.	8d/J	.	8f#/J	.	16dd\	.
.	.	.	.	.	.	16ee\JJ	.
8G\L	.	8d\L	.	8b'/L	.	2eeT\	.
8G\	.	8d\	.	(8b/	.	.	.
8A\	.	8c#\	.	8a/	.	.	.
8A\J	.	8c#\J	.	8g/J)	.	.	.
=91	=91	=91	=91	=91	=91	=91	=91
4D\	.	8d\L	.	8f#'/L	.	4dd\	.
.	.	8f#'\	.	8a'/	.	.	.
4r	.	8f#'\	.	8a'/	.	4r	.
.	.	8f#'\J	.	8a'/J	.	.	.
2r	.	(8f#t\L	.	(8aT/L	.	2r	.
.	.	8e\)	.	8g/)	.	.	.
.	.	(8eT\	.	(8gT/	.	.	.
.	.	8d\J)	.	8f#/J)	.	.	.
=92	=92	=92	=92	=92	=92	=92	=92
4E\	p	8r	.	8r	.	(2.g/	p
.	.	8B/L	p	8e/L	p	.	.
4r	.	8B/	.	8e/	.	.	.
.	.	8B/J	.	8e/J	.	.	.
4D\	.	8r	.	8r	.	.	.
.	.	8G/L	.	8e/L	.	.	.
4r	.	8G/	.	8e/	.	4b\)	.
.	.	8G/J	.	8e/J	.	.	.
=93	=93	=93	=93	=93	=93	=93	=93
4C#/	.	8r	.	8r	.	(8b/L	.
.	.	8G/L	.	8e/L	.	8a/J)	.
4r	.	8G/	.	8e/	.	2a/	.
.	.	8G/J	.	8e/J	.	.	.
4D\	.	8r	.	8r	.	.	.
.	.	(8F#/L	.	8d/L	.	.	.
4r	.	8B/	.	8d/	.	(8g/L	.
.	.	8A/J)	.	8d/J	.	8f#/J)	.
=94	=94	=94	=94	=94	=94	=94	=94
!	!	!	!	!	!	! 16f#P/	!
4GG/	.	8r	.	8r	.	4ep/	.
.	.	8G/L	.	8B/L	.	.	.
4r	.	8G/	.	8B/	.	(2d/	.
.	.	8G/J	.	8B/J	.	.	.
4AA/	.	8F#/L	.	8r	.	.	.
.	.	8F#/	.	8A/L	.	.	.
4r	.	8E/	.	8A/	.	4c#/)	.
.	.	8E/J	.	8A/J	.	.	.
=95	=95	=95	=95	=95	=95	=95	=95
4D\	.	8D'/L	.	8r	.	(4.d/	.
.	.	8F#'/	.	8A'/L	.	.	.
4r	.	(8F#/	.	(8A/	.	.	.
.	.	8G/J)	.	8c#/J)	.	8e/)	.
2r	.	8A'\L	.	8d'/L	.	4f#/	.
.	.	(8f#\	.	(8a/	.	.	.
.	.	8e\	.	8g/	.	4r	.
.	.	8d\J)	.	8f#/J)	.	.	.
=96	=96	=96	=96	=96	=96	=96	=96
4E\	.	8r	.	8r	.	(2.gg\	.
.	.	8e\L	.	8b\L	.	.	.
4r	.	8e\	.	8b\	.	.	.
.	.	8e\J	.	8b\J	.	.	.
4D\	.	8r	.	8r	.	.	.
.	.	8e\L	.	(8b/L	.	.	.
4r	.	8e\	.	8g/)	.	4bb\)	.
.	.	8e\J	.	8g'/J	.	.	.
=97	=97	=97	=97	=97	=97	=97	=97
4C#/	.	8r	.	8r	.	(8bb\L	.
.	.	8e\L	.	8g/L	.	8aa\J)	.
4r	.	8e\	.	8g/	.	2aa\	.
.	.	8e\J	.	8g/J	.	.	.
4D\	.	8r	.	8r	.	.	.
.	.	(8d\L	.	(8f#/L	.	.	.
4r	.	8e\	.	8g/	.	(8gg\L	.
.	.	8f#\J)	.	8a/J)	.	8ff#\J)	.
=98	=98	=98	=98	=98	=98	=98	=98
!	!	!	!	!	!	! 16ff#P/	!
4G\	.	8r	.	8r	.	4eep\	.
.	.	8g\L	.	8b\L	.	.	.
4r	.	8g\	.	8b\	.	(2dd\	.
.	.	8g\J	.	8b\J	.	.	.
4A\	.	8f#\L	.	8a/L	.	.	.
.	.	8f#\	.	8a/	.	.	.
4r	.	8e\	.	8g/	.	4cc#\)	.
.	.	8e\J	.	8g/J	.	.	.
=99	=99	=99	=99	=99	=99	=99	=99
8B-\L	f	8d\L	f	8fn/L	f	[2dd/ 2d/	f
8B-\	.	8d\	.	8f/	.	.	.
8B-\	.	8d\	.	8f/	.	.	.
8B-\J	.	8d\J	.	8f/J	.	.	.
8B-\L	.	8d\L	.	8f/L	.	8dd\L]	.
8B-\	.	8d\	.	8f/	.	16ee\L	.
.	.	.	.	.	.	16ffn\JJ	.
8B-\	.	8d\	.	8f/	.	16gg\LL	.
.	.	.	.	.	.	16aa\	.
8B-\J	.	8d\J	.	8f/J	.	16bb-\	.
.	.	.	.	.	.	16ccc#\JJ	.
=100	=100	=100	=100	=100	=100	=100	=100
8BB-/L	.	8d\L	.	8fn/L	.	2ddd\	.
8BB-/	.	8d\	.	8f/	.	.	.
8BB-/	.	8d\	.	8f/	.	.	.
8BB-/J	.	8d\J	.	8f/J	.	.	.
8BBn/L	.	8d\L	.	8f/L	.	2G#/	.
8BB/	.	8d\	.	8f/	.	.	.
8BB/	.	8d\	.	8f/	.	.	.
8BB/J	.	8d\J	.	8f/J	.	.	.
=101	=101	=101	=101	=101	=101	=101	=101
8C#/L	.	8A/L	.	8e/L	.	[2Gn/	.
8C#/	.	8A/	.	8e/	.	.	.
8C#/	.	8A/	.	8e/	.	.	.
8C#/J	.	8A/J	.	8e/J	.	.	.
8C#/L	.	8E/L	.	4e/	.	8G/L]	.
8C#/	.	8E/	.	.	.	16A/L	.
.	.	.	.	.	.	16B/JJ	.
8BB/	.	8D/	.	4r	.	16c#/LL	.
.	.	.	.	.	.	16d/	.
8BB/J	.	8D/J	.	.	.	16e/	.
.	.	.	.	.	.	16f#/JJ	.
=102	=102	=102	=102	=102	=102	=102	=102
8AA/L	.	8C#/L	.	8e/L	.	2g/	.
8AA/	.	8C#/	.	8e/	.	.	.
8AA/	.	8C#/	.	8e/	.	.	.
8AA/J	.	8C#/J	.	8e/J	.	.	.
8C#/L	.	8A/L	.	8e/L	.	2gg\	.
8C#/	.	8A/	.	8e/	.	.	.
8C#/	.	8A/	.	8e/	.	.	.
8C#/J	.	8A/J	.	8e/J	.	.	.
=103	=103	=103	=103	=103	=103	=103	=103
8D\L	.	4A/	.	8d/L	.	4ff#\	.
8D\	.	.	.	16f#/L	.	.	.
.	.	.	.	16a/JJ	.	.	.
8D\	.	4r	.	4dd\	.	8r	.
8D\J	.	.	.	.	.	16aa\LL	.
.	.	.	.	.	.	16ff#\JJ	.
8F#\L	.	8a\L	.	2r	.	8ddd\L	.
8F#\	.	8a\	.	.	.	16aa\L	.
.	.	.	.	.	.	16ff#\JJ	.
8F#\	.	8a\	.	.	.	8ddd\L	.
8F#\J	.	8a\J	.	.	.	16aa\L	.
.	.	.	.	.	.	16ff#\JJ	.
=104	=104	=104	=104	=104	=104	=104	=104
8G\L	.	4d\	.	8B/L	.	4ee\	.
8G\	.	.	.	16e/L	.	.	.
.	.	.	.	16g/JJ	.	.	.
8G\	.	4r	.	4b\	.	8r	.
8G\J	.	.	.	.	.	16gg\LL	.
.	.	.	.	.	.	16ee\JJ	.
8G\L	.	8d\L	.	2r	.	8bb\L	.
8G\	.	8d\	.	.	.	16gg\L	.
.	.	.	.	.	.	16ee\JJ	.
8G\	.	8d\	.	.	.	8bb\L	.
8G\J	.	8d\J	.	.	.	16gg\L	.
.	.	.	.	.	.	16ee\JJ	.
=105	=105	=105	=105	=105	=105	=105	=105
8A\L	.	8A/L	.	8d/	.	8ff#\	.
8A\	.	8A/	.	4f#/	.	4aa\	.
8A\	.	8A/	.	.	.	.	.
8A\J	.	8A/J	.	4e/	.	4gg\	.
8AA/L	.	8A/L	.	.	.	.	.
8AA/	.	8A/	.	4d/	.	4ff#\	.
8AA/	.	8A/	.	.	.	.	.
8AA/J	.	8G/J	.	8c#/	.	8ee\	.
=106	=106	=106	=106	=106	=106	=106	=106
8D\L	.	4F#/	.	8d/L	.	4dd\	.
8D\	.	.	.	16f#/L	.	.	.
.	.	.	.	16a/JJ	.	.	.
8D\	.	4r	.	4dd\	.	8r	.
8D\J	.	.	.	.	.	16a/LL	.
.	.	.	.	.	.	16f#/JJ	.
8F#\L	.	8A/L	.	2r	.	8dd/L	.
8F#\	.	8A/	.	.	.	16a/L	.
.	.	.	.	.	.	16f#/JJ	.
8F#\	.	8A/	.	.	.	8dd/L	.
8F#\J	.	8A/J	.	.	.	16a/L	.
.	.	.	.	.	.	16f#/JJ	.
=107	=107	=107	=107	=107	=107	=107	=107
8G\L	.	4G/	.	8B/L	.	4e/	.
8G\	.	.	.	16e/L	.	.	.
.	.	.	.	16g/JJ	.	.	.
8G\	.	4r	.	4b\	.	8r	.
8G\J	.	.	.	.	.	16g/LL	.
.	.	.	.	.	.	16e/JJ	.
4G\	.	2r	.	2r	.	8b/L	.
.	.	.	.	.	.	16g/L	.
.	.	.	.	.	.	16e/JJ	.
4r	.	.	.	.	.	8ee\L	.
.	.	.	.	.	.	16b\L	.
.	.	.	.	.	.	16g\JJ	.
=108	=108	=108	=108	=108	=108	=108	=108
4G\	.	4B/	.	4e/	.	8gg\L	.
.	.	.	.	.	.	16ee\L	.
.	.	.	.	.	.	16b\JJ	.
4r	.	4r	.	4r	.	8bb\L	.
.	.	.	.	.	.	16gg\L	.
.	.	.	.	.	.	16ee\JJ	.
2r	.	2r	.	2r	.	8ddd'\L	.
.	.	.	.	.	.	8ccc#'\	.
.	.	.	.	.	.	8bb'\	.
.	.	.	.	.	.	8aa#'\J	.
=109	=109	=109	=109	=109	=109	=109	=109
1r	.	1r	.	1r	.	8bb'\L	.
.	.	.	.	.	.	8aan'\	.
.	.	.	.	.	.	8gg'\	.
.	.	.	.	.	.	8ff#'\J	.
.	.	.	.	.	.	8gg'\L	.
.	.	.	.	.	.	8ff#'\	.
.	.	.	.	.	.	8ee'\	.
.	.	.	.	.	.	8dd'\J	.
=110	=110	=110	=110	=110	=110	=110	=110
2AA/	.	(4A/	.	2e/	.	16cc#\LL	.
.	.	.	.	.	.	16dd\	.
.	.	.	.	.	.	16ee\	.
.	.	.	.	.	.	16dd\JJ	.
.	.	4c#\)	.	.	.	16cc#/LL	.
.	.	.	.	.	.	16b/	.
.	.	.	.	.	.	16a/	.
.	.	.	.	.	.	16g/JJ	.
2D\	.	(4A/	.	(4d/	.	16f#/LL	.
.	.	.	.	.	.	16g/	.
.	.	.	.	.	.	16a/	.
.	.	.	.	.	.	16g/JJ	.
.	.	4F#/)	.	4A/)	.	16f#/LL	.
.	.	.	.	.	.	16e/	.
.	.	.	.	.	.	16d/	.
.	.	.	.	.	.	16cn/JJ	.
=111	=111	=111	=111	=111	=111	=111	=111
4GG/	.	4D/	.	4G/	.	16B/LL	.
.	.	.	.	.	.	16c#/	.
.	.	.	.	.	.	16d/	.
.	.	.	.	.	.	16c#/JJ	.
4r	.	4r	.	4r	.	16d/LL	.
.	.	.	.	.	.	16d#/	.
.	.	.	.	.	.	16e/	.
.	.	.	.	.	.	16d#/JJ	.
2r	.	2r	.	2r	.	16e/LL	.
.	.	.	.	.	.	16f#/	.
.	.	.	.	.	.	16g/	.
.	.	.	.	.	.	16f#/JJ	.
.	.	.	.	.	.	16g/LL	.
.	.	.	.	.	.	16a#/	.
.	.	.	.	.	.	16b/	.
.	.	.	.	.	.	16a#/JJ	.
=112	=112	=112	=112	=112	=112	=112	=112
4G\	.	4G/	.	4d/	.	16b\LL	.
.	.	.	.	.	.	16dd#\	.
.	.	.	.	.	.	16ee\	.
.	.	.	.	.	.	16dd#\JJ	.
4r	.	4r	.	4r	.	16ee\LL	.
.	.	.	.	.	.	16ff#\	.
.	.	.	.	.	.	16gg\	.
.	.	.	.	.	.	16ff#\JJ	.
2r	.	2r	.	2r	.	16gg\LL	.
.	.	.	.	.	.	16aa#\	.
.	.	.	.	.	.	16bb\	.
.	.	.	.	.	.	16aa#\JJ	.
.	.	.	.	.	.	16bb\LL	.
.	.	.	.	.	.	16ccc#\	.
.	.	.	.	.	.	16dddn\	.
.	.	.	.	.	.	16ccc#\JJ	.
=113	=113	=113	=113	=113	=113	=113	=113
4F#\	.	4A/	.	4d/	.	16ddd\LL	.
.	.	.	.	.	.	16ccc#\	.
.	.	.	.	.	.	16bb\	.
.	.	.	.	.	.	16aan\JJ	.
4r	.	4r	.	4r	.	16gg\LL	.
.	.	.	.	.	.	16ff#\	.
.	.	.	.	.	.	16ee\	.
.	.	.	.	.	.	16ddn\JJ	.
4G\	.	4B/	.	4d/	.	16bb\LL	.
.	.	.	.	.	.	16aa\	.
.	.	.	.	.	.	16gg\	.
.	.	.	.	.	.	16ff#\JJ	.
4r	.	4r	.	4r	.	16ee\LL	.
.	.	.	.	.	.	16dd\	.
.	.	.	.	.	.	16cc#\	.
.	.	.	.	.	.	16b\JJ	.
=114	=114	=114	=114	=114	=114	=114	=114
8A\L	.	(4d\	.	4f#/	.	4aa\	.
8A\	.	.	.	.	.	.	.
8A\	.	4f#\)	.	(2dd\	.	16gg\LL	.
.	.	.	.	.	.	16ff#\	.
8A\J	.	.	.	.	.	16ee\	.
.	.	.	.	.	.	16dd\JJ	.
8AA/L	.	2g\	.	.	.	2eeT\	.
8AA/	.	.	.	.	.	.	.
8AA/	.	.	.	4cc#\)	.	.	.
8AA/J	.	.	.	.	.	.	.
=115	=115	=115	=115	=115	=115	=115	=115
4D\	.	16f#\LL	.	4dd\	.	4dd\	.
.	.	16a\	.	.	.	.	.
.	.	16dd\	.	.	.	.	.
.	.	16cc#\JJ	.	.	.	.	.
4F#\	.	16dd\LL	.	4r	.	4r	.
.	.	16cc#\	.	.	.	.	.
.	.	16b\	.	.	.	.	.
.	.	16a\JJ	.	.	.	.	.
4E\	.	16g\LL	.	4r	.	4r	.
.	.	16f#\	.	.	.	.	.
.	.	16e\	.	.	.	.	.
.	.	16d\JJ	.	.	.	.	.
4AA/	.	16c#/LL	.	8.eeT\L	.	8.ggT\L	.
.	.	16A/	.	.	.	.	.
.	.	16B/	.	.	.	.	.
.	.	16c#/JJ	.	32dd\LL	.	32ff#\LL	.
.	.	.	.	32ee\JJJ	.	32gg\JJJ	.
=116	=116	=116	=116	=116	=116	=116	=116
4D\	.	16d\LL	.	4dd\	.	4ff#\	.
.	.	16a\	.	.	.	.	.
.	.	16dd\	.	.	.	.	.
.	.	16cc#\JJ	.	.	.	.	.
4F#\	.	16b\LL	.	4r	.	4r	.
.	.	16a\	.	.	.	.	.
.	.	16g\	.	.	.	.	.
.	.	16f#\JJ	.	.	.	.	.
4G\	.	16e\LL	.	4r	.	4r	.
.	.	16d\	.	.	.	.	.
.	.	16e\	.	.	.	.	.
.	.	16f#\JJ	.	.	.	.	.
4A\	.	16g\LL	.	8.cc#t\L	.	8.eeT\L	.
.	.	16e\	.	.	.	.	.
.	.	16a\	.	.	.	.	.
.	.	16g\JJ	.	32b\LL	.	32dd\LL	.
.	.	.	.	32cc#\JJJ	.	32ee\JJJ	.
=117	=117	=117	=117	=117	=117	=117	=117
8D\L	.	4f#\	.	4dd\	.	16dd\LL	.
.	.	.	.	.	.	16ff#\	.
8D\	.	.	.	.	.	16aa\	.
.	.	.	.	.	.	16ff#\JJ	.
8G\	.	(8d\L	.	(8b/L	.	16ee\LL	.
.	.	.	.	.	.	16gg\	.
8G\J	.	8B\J)	.	16g/L	.	16bb\	.
.	.	.	.	16e/JJ)	.	16gg\JJ	.
8A\L	.	(4A/	.	(4d/	.	16ff#\LL	.
.	.	.	.	.	.	16aa\	.
8A\	.	.	.	.	.	16ff#\	.
.	.	.	.	.	.	16dd\JJ	.
8AA\	.	4e\)	.	4g/)	.	16ee\LL	.
.	.	.	.	.	.	16gg\	.
8AA\J	.	.	.	.	.	16ee\	.
.	.	.	.	.	.	16cc#\JJ	.
=118	=118	=118	=118	=118	=118	=118	=118
8D\L	.	4d\	.	4f#/	.	16dd\LL	.
.	.	.	.	.	.	16ff#\	.
8D\	.	.	.	.	.	16aa\	.
.	.	.	.	.	.	16ff#\JJ	.
8G\	.	(8d\L	.	(8b/L	.	16ee\LL	.
.	.	.	.	.	.	16gg\	.
8G\J	.	8B\J)	.	16g/L	.	16bb\	.
.	.	.	.	16e/JJ)	.	16gg\JJ	.
8A\L	.	4A/	.	4d/	.	16ff#\LL	.
.	.	.	.	.	.	16aa\	.
8A\	.	.	.	.	.	16ff#\	.
.	.	.	.	.	.	16dd\JJ	.
8AA\	.	4e\	.	4g/	.	16ee\LL	.
.	.	.	.	.	.	16gg\	.
8AA\J	.	.	.	.	.	16ee\	.
.	.	.	.	.	.	16cc#\JJ	.
=119	=119	=119	=119	=119	=119	=119	=119
4D\	.	4d\	.	4f#/	.	4dd\	.
4D\	.	4A/	.	4dd/ 4f#/ 4A/	.	4ff#/ 4a/ 4d/	.
4D\	.	4D/	.	4dd/ 4f#/ 4A/	.	4ff#/ 4a/ 4d/	.
4r	.	4r	.	4r	.	4r	.
==|!	==|!	==|!	==|!	==|!	==|!	==|!	==|!
*-	*-	*-	*-	*-	*-	*-	*-
!!!RWG: Appoggiaturas of spine 'Violino 1' need manual editing in measures: 19, 19, 26, 26, 31, 35, 82, 82, 89, 89, 94, 98
!!!RWG: Appoggiaturas of spine 'Violino 2' need manual editing in measures: 26, 26, 89, 89
!!!RWG: Key is interpreted using the Humdrum key tool.
!!!AFT: stage2
!!!END: 1994/02/07
!!!KEY: 1264827196
!!!EMD: Converted from MuseData to Humdrum Dec 16, 2000, by Andreas Kornstaedt using muse2kern.
!!!EMD: Manual editing by Craig Sapp, Nov 2001
